images/icons/link.svg

<svg height="12pt" viewBox="0 0 12 12" width="12pt" xmlns="http://www.w3.org/2000/svg"><g fill="#3273f5"><path d="m6.34375 5.203125c-.132812.128906-.132812.34375 0 .472656.542969.546875.542969 1.429688 0 1.972657l-2.859375 2.859374c-.542969.546876-1.429687.546876-1.972656 0l-.429688-.429687c-.546875-.542969-.546875-1.429687 0-1.972656l2.859375-2.859375c.128906-.132813.128906-.34375 0-.472656-.132812-.132813-.34375-.132813-.476562 0l-2.859375 2.855468c-.390625.390625-.605469.910156-.605469 1.464844 0 .550781.214844 1.070312.605469 1.460938l.429687.429687c.402344.402344.933594.601563 1.460938.601563.53125 0 1.0625-.199219 1.464844-.601563l2.855468-2.859375c.804688-.804688.804688-2.117188 0-2.921875-.128906-.132813-.339844-.132813-.472656 0zm0 0"/><path d="m11.394531 1.445312-.429687-.429687c-.804688-.804687-2.117188-.804687-2.921875 0l-2.859375 2.859375c-.804688.804688-.804688 2.117188 0 2.921875.132812.132813.34375.132813.476562 0 .132813-.128906.132813-.34375 0-.472656-.546875-.546875-.546875-1.429688 0-1.972657l2.859375-2.859374c.542969-.546876 1.425781-.546876 1.972657 0l.429687.429687c.542969.542969.542969 1.429687 0 1.972656l-2.859375 2.859375c-.132812.132813-.132812.34375 0 .472656.066406.066407.152344.101563.238281.101563.082031 0 .167969-.03125.234375-.101563l2.859375-2.855468c.390625-.390625.605469-.910156.605469-1.464844 0-.550781-.214844-1.070312-.605469-1.460938zm0 0"/></g></svg>

<?xml version="1.0" encoding="UTF-8"?>
<svg xmlns="http://www.w3.org/2000/svg" xmlns:xlink="http://www.w3.org/1999/xlink" width="12pt" height="12pt" viewBox="0 0 12 12" version="1.1">
<g id="surface1">
<path style=" stroke:none;fill-rule:nonzero;fill:rgb(19.607843%,45.098039%,96.078431%);fill-opacity:1;" d="M 6.34375 5.203125 C 6.210938 5.332031 6.210938 5.546875 6.34375 5.675781 C 6.886719 6.222656 6.886719 7.105469 6.34375 7.648438 L 3.484375 10.507812 C 2.941406 11.054688 2.054688 11.054688 1.511719 10.507812 L 1.082031 10.078125 C 0.535156 9.535156 0.535156 8.648438 1.082031 8.105469 L 3.941406 5.246094 C 4.070312 5.113281 4.070312 4.902344 3.941406 4.773438 C 3.808594 4.640625 3.597656 4.640625 3.464844 4.773438 L 0.605469 7.628906 C 0.214844 8.019531 0 8.539062 0 9.09375 C 0 9.644531 0.214844 10.164062 0.605469 10.554688 L 1.035156 10.984375 C 1.4375 11.386719 1.96875 11.585938 2.496094 11.585938 C 3.027344 11.585938 3.558594 11.386719 3.960938 10.984375 L 6.816406 8.125 C 7.621094 7.320312 7.621094 6.007812 6.816406 5.203125 C 6.6875 5.070312 6.476562 5.070312 6.34375 5.203125 Z M 6.34375 5.203125 "/>
<path style=" stroke:none;fill-rule:nonzero;fill:rgb(19.607843%,45.098039%,96.078431%);fill-opacity:1;" d="M 11.394531 1.445312 L 10.964844 1.015625 C 10.160156 0.210938 8.847656 0.210938 8.042969 1.015625 L 5.183594 3.875 C 4.378906 4.679688 4.378906 5.992188 5.183594 6.796875 C 5.316406 6.929688 5.527344 6.929688 5.660156 6.796875 C 5.792969 6.667969 5.792969 6.453125 5.660156 6.324219 C 5.113281 5.777344 5.113281 4.894531 5.660156 4.351562 L 8.519531 1.492188 C 9.0625 0.945312 9.945312 0.945312 10.492188 1.492188 L 10.921875 1.921875 C 11.464844 2.464844 11.464844 3.351562 10.921875 3.894531 L 8.0625 6.753906 C 7.929688 6.886719 7.929688 7.097656 8.0625 7.226562 C 8.128906 7.292969 8.214844 7.328125 8.300781 7.328125 C 8.382812 7.328125 8.46875 7.296875 8.535156 7.226562 L 11.394531 4.371094 C 11.785156 3.980469 12 3.460938 12 2.90625 C 12 2.355469 11.785156 1.835938 11.394531 1.445312 Z M 11.394531 1.445312 "/>
</g>
</svg>
